kwork_juristConsalt/img/svg/transparentTerms.svg

<svg width="100" height="100" viewBox="0 0 100 100" fill="none" xmlns="http://www.w3.org/2000/svg">
<path d="M91.2109 100H8.78906C3.94277 100 0 96.0572 0 91.2109V8.78906C0 3.94277 3.94277 0 8.78906 0H91.2109C96.0572 0 100 3.94277 100 8.78906V91.2109C100 96.0572 96.0572 100 91.2109 100Z" fill="#0A789B"/>
<path d="M91.2109 0H50V100H91.2109C96.0572 100 100 96.0572 100 91.2109V8.78906C100 3.94277 96.0572 0 91.2109 0Z" fill="#08475E"/>
<path d="M8.78906 5.85938C7.17363 5.85938 5.85938 7.17363 5.85938 8.78906V91.2109C5.85938 92.8264 7.17363 94.1406 8.78906 94.1406H91.2109C92.8264 94.1406 94.1406 92.8264 94.1406 91.2109V8.78906C94.1406 7.17363 92.8264 5.85938 91.2109 5.85938H8.78906Z" fill="#A2E786"/>
<path d="M91.2109 5.85938H50V94.1406H91.2109C92.8264 94.1406 94.1406 92.8264 94.1406 91.2109V8.78906C94.1406 7.17363 92.8264 5.85938 91.2109 5.85938Z" fill="#00CB75"/>
<path d="M14.8438 27.5391C13.2258 27.5391 11.9141 26.2273 11.9141 24.6094V14.8438C11.9141 13.2258 13.2258 11.9141 14.8438 11.9141H24.6094C26.2273 11.9141 27.5391 13.2258 27.5391 14.8438C27.5391 16.4617 26.2273 17.7734 24.6094 17.7734H17.7734V24.6094C17.7734 26.2273 16.4617 27.5391 14.8438 27.5391Z" fill="#0A789B"/>
<path d="M24.6094 88.0859H14.8438C13.2258 88.0859 11.9141 86.7742 11.9141 85.1562V75.3906C11.9141 73.7727 13.2258 72.4609 14.8438 72.4609C16.4617 72.4609 17.7734 73.7727 17.7734 75.3906V82.2266H24.6094C26.2273 82.2266 27.5391 83.5383 27.5391 85.1562C27.5391 86.7742 26.2273 88.0859 24.6094 88.0859Z" fill="#0A789B"/>
<path d="M85.1562 88.0859H75.3906C73.7727 88.0859 72.4609 86.7742 72.4609 85.1562C72.4609 83.5383 73.7727 82.2266 75.3906 82.2266H82.2266V75.3906C82.2266 73.7727 83.5383 72.4609 85.1562 72.4609C86.7742 72.4609 88.0859 73.7727 88.0859 75.3906V85.1562C88.0859 86.7742 86.7742 88.0859 85.1562 88.0859Z" fill="#08475E"/>
<path d="M85.1562 27.5391C83.5383 27.5391 82.2266 26.2273 82.2266 24.6094V17.7734H75.3906C73.7727 17.7734 72.4609 16.4617 72.4609 14.8438C72.4609 13.2258 73.7727 11.9141 75.3906 11.9141H85.1562C86.7742 11.9141 88.0859 13.2258 88.0859 14.8438V24.6094C88.0859 26.2273 86.7742 27.5391 85.1562 27.5391Z" fill="#08475E"/>
<path d="M50 72.4609C41.4103 72.4609 32.1974 68.8746 23.357 62.0896C16.7928 57.0516 12.7324 52.0488 12.5625 51.8383C11.6978 50.7652 11.6978 49.2348 12.5625 48.1617C12.7322 47.9512 16.7926 42.9484 23.357 37.9104C32.1974 31.1254 41.4103 27.5391 50 27.5391C58.5896 27.5391 67.8025 31.1254 76.6429 37.9104C83.2072 42.9484 87.2676 47.9512 87.4375 48.1617C88.3021 49.2348 88.3021 50.7652 87.4375 51.8383C87.2678 52.0488 83.2074 57.0516 76.6429 62.0896C67.8025 68.8746 58.5896 72.4609 50 72.4609Z" fill="#FFF5F5"/>
<path d="M76.643 62.0896C83.2072 57.0516 87.2676 52.0488 87.4375 51.8383C88.3021 50.7652 88.3021 49.2348 87.4375 48.1617C87.2678 47.9512 83.2074 42.9484 76.643 37.9104C67.8025 31.1254 58.5896 27.5391 50 27.5391V72.4609C58.5896 72.4609 67.8025 68.8746 76.643 62.0896Z" fill="#E2DFF4"/>
<path d="M50 72.4609C37.615 72.4609 27.5391 62.385 27.5391 50C27.5391 37.615 37.615 27.5391 50 27.5391C62.385 27.5391 72.4609 37.615 72.4609 50C72.4609 62.385 62.385 72.4609 50 72.4609Z" fill="#BCEAF9"/>
<path d="M72.4609 50C72.4609 37.615 62.385 27.5391 50 27.5391V72.4609C62.385 72.4609 72.4609 62.385 72.4609 50Z" fill="#AED0FF"/>
<path d="M50 60.7422C44.0768 60.7422 39.2578 55.9232 39.2578 50C39.2578 44.0768 44.0768 39.2578 50 39.2578C55.9232 39.2578 60.7422 44.0768 60.7422 50C60.7422 55.9232 55.9232 60.7422 50 60.7422Z" fill="#0A789B"/>
<path d="M60.7422 50C60.7422 44.0768 55.9232 39.2578 50 39.2578V60.7422C55.9232 60.7422 60.7422 55.9232 60.7422 50Z" fill="#08475E"/>
</svg>

<svg width="100" height="100" fill="none" xmlns="http://www.w3.org/2000/svg"><path d="M91.21 100H8.79C3.942 100 0 96.057 0 91.21V8.79C0 3.942 3.943 0 8.79 0h82.42C96.058 0 100 3.943 100 8.79v82.42c0 4.847-3.943 8.79-8.79 8.79z" fill="#0A789B"/><path d="M91.21 0H50v100h41.21c4.847 0 8.79-3.943 8.79-8.79V8.79C100 3.942 96.057 0 91.21 0z" fill="#08475E"/><path d="M8.79 5.86a2.933 2.933 0 00-2.93 2.93v82.42a2.933 2.933 0 002.93 2.93h82.42a2.933 2.933 0 002.93-2.93V8.79a2.933 2.933 0 00-2.93-2.93H8.79z" fill="#A2E786"/><path d="M91.21 5.86H50v88.28h41.21a2.933 2.933 0 002.93-2.93V8.79a2.933 2.933 0 00-2.93-2.93z" fill="#00CB75"/><path d="M14.844 27.54a2.93 2.93 0 01-2.93-2.93v-9.766a2.93 2.93 0 012.93-2.93h9.765a2.93 2.93 0 010 5.86h-6.836v6.835a2.93 2.93 0 01-2.93 2.93zm9.766 60.546h-9.766a2.93 2.93 0 01-2.93-2.93v-9.765a2.93 2.93 0 015.86 0v6.836h6.835a2.93 2.93 0 010 5.859z" fill="#0A789B"/><path d="M85.156 88.086h-9.765a2.93 2.93 0 010-5.86h6.836v-6.835a2.93 2.93 0 015.859 0v9.765a2.93 2.93 0 01-2.93 2.93zm0-60.546a2.93 2.93 0 01-2.93-2.93v-6.837h-6.835a2.93 2.93 0 010-5.859h9.765a2.93 2.93 0 012.93 2.93v9.765a2.93 2.93 0 01-2.93 2.93z" fill="#08475E"/><path d="M50 72.46c-8.59 0-17.803-3.585-26.643-10.37-6.564-5.038-10.625-10.041-10.794-10.252a2.93 2.93 0 010-3.676c.17-.21 4.23-5.214 10.794-10.252C32.197 31.125 41.41 27.54 50 27.54s17.802 3.585 26.643 10.37c6.564 5.038 10.625 10.041 10.794 10.252a2.93 2.93 0 010 3.676c-.17.21-4.23 5.214-10.794 10.252C67.803 68.875 58.59 72.46 50 72.46z" fill="#FFF5F5"/><path d="M76.643 62.09c6.564-5.038 10.625-10.041 10.794-10.252a2.93 2.93 0 000-3.676c-.17-.21-4.23-5.214-10.794-10.252C67.803 31.125 58.59 27.54 50 27.54v44.92c8.59 0 17.802-3.585 26.643-10.37z" fill="#E2DFF4"/><path d="M50 72.46c-12.385 0-22.46-10.075-22.46-22.46 0-12.385 10.075-22.46 22.46-22.46 12.385 0 22.46 10.075 22.46 22.46 0 12.385-10.075 22.46-22.46 22.46z" fill="#BCEAF9"/><path d="M72.46 50c0-12.385-10.075-22.46-22.46-22.46v44.92c12.385 0 22.46-10.075 22.46-22.46z" fill="#AED0FF"/><path d="M50 60.742c-5.923 0-10.742-4.819-10.742-10.742 0-5.923 4.819-10.742 10.742-10.742 5.923 0 10.742 4.819 10.742 10.742 0 5.923-4.819 10.742-10.742 10.742z" fill="#0A789B"/><path d="M60.742 50c0-5.923-4.819-10.742-10.742-10.742v21.484c5.923 0 10.742-4.819 10.742-10.742z" fill="#08475E"/></svg>
